X:31
T:Menuett (1)
R:Menuet
C:Louis de Caix d'Hervelois
H:17me sicle
N:
Z:<eric.forgeot@caramail.com> -- http://anamnese.fr.st
M:3/4
L:1/8
Q:1/4=120
K:C
"Am"A2 e4 | c2A2e2 |"Dm" fedc BA |"E7" ^G4 E2|\
"Am" A^GAc "G"Bd | "C"cBce "G7"df | "Am" e2d2c2 | "E7"BABcBc | !
"Am"A2 e4 | c2A2e2 |"Dm" fedc BA |"E7" ^G4 E2|\
"Am" A^GAc "G"Bd | "C"cBce "G7"df | "C" ed/-c/ B3 A | "Am"A6 "Fine":|!
 "C" c2g4 | e2c2g2 | "F" agfe dc | "G"B4G2 |\
 "C" cBce "G"df | "C" edeg "F"fa |"C"g2f2e2 | "G"d3 c BG |!
 "C" c2g4 | e2c2g2 | "F" agfe dc | "G"B4G2 |\
 "C" gfeg ce | "F" AGAB cd  |"C"ef "G"d3 c | "C"c3 dcB "Da Capo al Fine":|!
